static/name0.svg

<svg fill="none" height="106" viewBox="0 0 653 106" width="653" xmlns="http://www.w3.org/2000/svg">
    <g stroke="#fff" stroke-width="2">
        <path d="m84.376 103.96v-67.68l-26.352 50.4h-10.8l-26.352-50.4v67.68h-19.872v-102.24h21.312l30.24 58.176 30.528-58.176h21.168v102.24z"/>
        <path d="m154.682 1.72h17.568l38.88 102.24h-20.448l-9.504-25.488h-35.712l-9.36 25.488h-20.448zm22.896 62.784-14.112-40.176-14.688 40.176z"/>
        <path d="m242.216 38.44v65.52h-19.872v-102.24h15.408l53.28 67.104v-66.96h19.872v102.096h-16.128z"/>
        <path d="m375.804 104.68c-7.488 0-14.304-1.44-20.448-4.32-6.048-2.976-11.28-6.864-15.696-11.664-4.32-4.896-7.68-10.464-10.08-16.704s-3.6-12.624-3.6-19.152c0-6.816 1.248-13.344 3.744-19.584 2.592-6.24 6.096-11.76 10.512-16.56 4.512-4.8 9.84-8.592 15.984-11.376 6.144-2.88 12.816-4.32 20.016-4.32 7.392 0 14.112 1.536 20.16 4.608 6.144 2.976 11.376 6.912 15.696 11.808s7.68 10.464 10.08 16.704 3.6 12.576 3.6 19.008c0 6.816-1.248 13.344-3.744 19.584-2.496 6.144-5.952 11.616-10.368 16.416-4.416 4.704-9.696 8.496-15.84 11.376-6.144 2.784-12.816 4.176-20.016 4.176zm-29.664-51.84c0 4.416.672 8.688 2.016 12.816s3.264 7.776 5.76 10.944c2.592 3.168 5.712 5.712 9.36 7.632 3.744 1.92 7.968 2.88 12.672 2.88 4.8 0 9.024-.96 12.672-2.88 3.744-2.016 6.864-4.656 9.36-7.92 2.592-3.264 4.512-6.912 5.76-10.944 1.344-4.128 2.016-8.304 2.016-12.528 0-4.416-.72-8.688-2.16-12.816-1.344-4.128-3.312-7.776-5.904-10.944-2.496-3.168-5.616-5.664-9.36-7.488-3.648-1.92-7.776-2.88-12.384-2.88-4.8 0-9.072 1.008-12.816 3.024-3.744 1.92-6.864 4.512-9.36 7.776-2.496 3.168-4.416 6.816-5.76 10.944-1.248 4.032-1.872 8.16-1.872 12.384z"/>
        <path d="m524.392 103.96v-67.68l-26.352 50.4h-10.8l-26.352-50.4v67.68h-19.872v-102.24h21.312l30.24 58.176 30.528-58.176h21.168v102.24z"/>
        <path d="m594.697 1.72h17.568l38.88 102.24h-20.448l-9.504-25.488h-35.712l-9.36 25.488h-20.448zm22.896 62.784-14.112-40.176-14.688 40.176z"/>
    </g>
</svg>

<svg width="653" height="106" viewBox="0 0 653 106" fill="none" xmlns="http://www.w3.org/2000/svg">
<path d="M84.376 103.96V36.28L58.024 86.68H47.224L20.872 36.28V103.96H1V1.72H22.312L52.552 59.896L83.08 1.72H104.248V103.96H84.376Z" stroke="white" stroke-width="2"/>
<path d="M154.682 1.72H172.25L211.13 103.96H190.682L181.178 78.472H145.466L136.106 103.96H115.658L154.682 1.72ZM177.578 64.504L163.466 24.328L148.778 64.504H177.578Z" stroke="white" stroke-width="2"/>
<path d="M242.216 38.44V103.96H222.344V1.72H237.752L291.032 68.824V1.864H310.904V103.96H294.776L242.216 38.44Z" stroke="white" stroke-width="2"/>
<path d="M375.804 104.68C368.316 104.68 361.5 103.24 355.356 100.36C349.308 97.384 344.076 93.496 339.66 88.696C335.34 83.8 331.98 78.232 329.58 71.992C327.18 65.752 325.98 59.368 325.98 52.84C325.98 46.024 327.228 39.496 329.724 33.256C332.316 27.016 335.82 21.496 340.236 16.696C344.748 11.896 350.076 8.104 356.22 5.32C362.364 2.44 369.036 1 376.236 1C383.628 1 390.348 2.536 396.396 5.608C402.54 8.584 407.772 12.52 412.092 17.416C416.412 22.312 419.772 27.88 422.172 34.12C424.572 40.36 425.772 46.696 425.772 53.128C425.772 59.944 424.524 66.472 422.028 72.712C419.532 78.856 416.076 84.328 411.66 89.128C407.244 93.832 401.964 97.624 395.82 100.504C389.676 103.288 383.004 104.68 375.804 104.68ZM346.14 52.84C346.14 57.256 346.812 61.528 348.156 65.656C349.5 69.784 351.42 73.432 353.916 76.6C356.508 79.768 359.628 82.312 363.276 84.232C367.02 86.152 371.244 87.112 375.948 87.112C380.748 87.112 384.972 86.152 388.62 84.232C392.364 82.216 395.484 79.576 397.98 76.312C400.572 73.048 402.492 69.4 403.74 65.368C405.084 61.24 405.756 57.064 405.756 52.84C405.756 48.424 405.036 44.152 403.596 40.024C402.252 35.896 400.284 32.248 397.692 29.08C395.196 25.912 392.076 23.416 388.332 21.592C384.684 19.672 380.556 18.712 375.948 18.712C371.148 18.712 366.876 19.72 363.132 21.736C359.388 23.656 356.268 26.248 353.772 29.512C351.276 32.68 349.356 36.328 348.012 40.456C346.764 44.488 346.14 48.616 346.14 52.84Z" stroke="white" stroke-width="2"/>
<path d="M524.392 103.96V36.28L498.04 86.68H487.24L460.888 36.28V103.96H441.016V1.72H462.328L492.568 59.896L523.096 1.72H544.264V103.96H524.392Z" stroke="white" stroke-width="2"/>
<path d="M594.697 1.72H612.265L651.145 103.96H630.697L621.193 78.472H585.481L576.121 103.96H555.673L594.697 1.72ZM617.593 64.504L603.481 24.328L588.793 64.504H617.593Z" stroke="white" stroke-width="2"/>
</svg>
